icons/_assets/heading_5.svg

<svg width="100" height="100" xmlns="http://www.w3.org/2000/svg"><path d="M68.5398674,59.928 L68.5398674,37.314 L91.7008791,34.451 L91.7008791,39.095 L74.0514343,41.303 L74.0514343,52.757 C76.4072332,51.62 78.237739,51.108 80.3258791,50.84 C86.7717458,50.012 95,53.153 95,61.768 C95,69.059 88.5892196,75.901 80.0652375,77.067 C72.6750463,78.077 68.3423812,76.108 64.9861197,71.936 L69.9192628,68.544 C71.9542721,71.778 75.4258174,73.31 79.6091147,72.744 C83.8455429,72.171 89.1736582,68.793 89.1736582,62.652 C89.1736582,57.671 84.8209439,54.639 79.2823103,55.359 C75.6874614,55.825 72.4123998,57.307 69.1964837,60.232 L68.5398674,59.928 Z M57.8656693,16 L57.8656693,78.062 L45.1493677,79.517 L45.1493677,57.245 L18.7152992,60.271 L18.7152992,82.545 L6,84 L6,21.939 L18.7152992,20.484 L18.7152992,48.863 L45.1493677,45.838 L45.1493677,17.456 L57.8656693,16 Z" fill="#134B45" fill-rule="evenodd"/></svg>

<svg width="100" height="100" xmlns="http://www.w3.org/2000/svg"><path d="M68.54 59.928V37.314l23.16-2.863v4.644l-17.649 2.208v11.454c2.356-1.137 4.187-1.649 6.275-1.917C86.772 50.012 95 53.153 95 61.768c0 7.291-6.41 14.133-14.935 15.299-7.39 1.01-11.723-.959-15.079-5.131l4.933-3.392c2.035 3.234 5.507 4.766 9.69 4.2 4.237-.573 9.565-3.951 9.565-10.092 0-4.981-4.353-8.013-9.892-7.293-3.595.466-6.87 1.948-10.086 4.873l-.656-.304zM57.866 16v62.062l-12.717 1.455V57.245l-26.434 3.026v22.274L6 84V21.939l12.715-1.455v28.379l26.434-3.025V17.456L57.866 16z" fill="#134B45" fill-rule="evenodd"/></svg>
